X:152
T:Good Natured Man, The
T:Steamboat, The
R:hornpipe
H:Sometimes attributed to James Hill, but first appears in print in 1831,
H:so it's improbable that Hill composed it.
Z:id:hn-hornpipe-152
M:C|
L:1/8
K:G
(3def | g2bg d2gd | BcdB G2AB | cded cBAG | FGEF D2ef |
g2bg degd | BcdB GBAB | cded cBAF |1 A2GF G2 :|2 A2GF GABc ||
|: d^cdB g2gf | edec a2ag | f2fa g2ga | fgaf dfef |
g2bg d2gd | BcdB GBAB | cded cBAF |1 A2GF GABc :|2 A2GF G2 ||

